build/img/icon/icon-drop-text.svg

<svg xmlns="http://www.w3.org/2000/svg" width="641" height="590" viewBox="0 0 641 590" fill="none"> <path d="M552.452 0.956421H88.8818C40.4136 0.956421 0.979492 40.3827 0.979492 88.8588V372.554C0.979492 420.921 40.2419 460.285 88.5696 460.456V589.194L273.58 460.456H552.452C600.92 460.456 640.354 421.022 640.354 372.554V88.8588C640.354 40.3827 600.92 0.956421 552.452 0.956421ZM602.891 372.554C602.891 400.363 580.265 422.993 552.452 422.993H261.826L126.033 517.487V422.993H88.8818C61.0692 422.993 38.4429 400.363 38.4429 372.554V88.8588C38.4429 61.0422 61.0692 38.4198 88.8818 38.4198H552.452C580.265 38.4198 602.891 61.0422 602.891 88.8588V372.554Z" fill="#FF6B00"/> <path d="M172.105 133.331H469.229V170.794H172.105V133.331Z" fill="#FF6B00"/> <path d="M172.105 213.253H469.229V250.716H172.105V213.253Z" fill="#FF6B00"/> <path d="M172.105 293.175H469.229V330.638H172.105V293.175Z" fill="#FF6B00"/> </svg>

<svg xmlns="http://www.w3.org/2000/svg" width="641" height="590" fill="none"><path d="M552.452.956H88.882C40.414.956.979 40.383.979 88.86v283.695c0 48.367 39.263 87.731 87.59 87.902v128.738L273.58 460.456h278.872c48.468 0 87.902-39.434 87.902-87.902V88.859c0-48.476-39.434-87.903-87.902-87.903zm50.439 371.598c0 27.809-22.626 50.439-50.439 50.439H261.826l-135.793 94.494v-94.494H88.882c-27.813 0-50.44-22.63-50.44-50.439V88.859c0-27.817 22.627-50.44 50.44-50.44h463.57c27.813 0 50.439 22.623 50.439 50.44v283.695z" fill="#FF6B00"/><path d="M172.105 133.331h297.124v37.463H172.105v-37.463zm0 79.922h297.124v37.463H172.105v-37.463zm0 79.922h297.124v37.463H172.105v-37.463z" fill="#FF6B00"/></svg>
